!!!OTL: Waise und Stiefmutter Ich stand auf hohem Felsen,
!!!ARE: Europa, Mitteleuropa, Oesterreich / Italia, Sued - Tirol
!!!YOR: 5, S. 300
!!    ????
!!!SCT: Q1116H
!!!YEM: Copyright 1995, estate of Helmut Schaffrath.
**kern
*ICvox
*Ivox
*M6/8
*k[f#]
*G:
{8d
=1
4g
8g
8g
8f#
8g
=2
8a
8a
4.r}
{16d
16d
=3
4a
8a
8a
8g
8a
=4
4b
4.r}
{8dd
=5
4dd
8cc
4a
8cc
=6
4cc
8b
4g}
{8b
=7
8b
8a
8b
8cc
8b
8a
=8
4g
4.r}
==
!!!AGN: ???
!! Melodievergleich zu Q0116, anderes Lied.
!!!ONB: ESAC (Essen Associative Code) Database: BALLADE
!!!AMT: compound duple
!!!AIN: vox
!!!EED: Helmut Schaffrath
!!!EEV: 1.0
*-
